fs/mail_inbox_arrow_right_20_filled.svg

<svg viewBox="0 0 20 20" fill="none" xmlns="http://www.w3.org/2000/svg" height="1em" width="1em">
  <path d="M16 11V10.4003C16.3578 10.2174 16.6929 9.99647 17 9.74284V15C17 16.6569 15.6569 18 14 18H6C4.34315 18 3 16.6569 3 15V7C3 5.34315 4.34315 4 6 4H8.20703C8.11588 4.32228 8.05337 4.65659 8.02242 5H6C4.89543 5 4 5.89543 4 7V11H7.5C7.77594 11 7.99968 11.2233 8.00001 11.4991L8.00033 11.5114C8.00075 11.5238 8.00165 11.5443 8.00361 11.5718C8.00755 11.6269 8.01565 11.7088 8.03226 11.8084C8.06586 12.0101 8.13214 12.2713 8.25971 12.5264C8.38631 12.7796 8.56834 13.0176 8.83204 13.1933C9.0926 13.3671 9.46249 13.5 10 13.5C10.5375 13.5 10.9074 13.3671 11.168 13.1933C11.4317 13.0176 11.6137 12.7796 11.7403 12.5264C11.8679 12.2713 11.9341 12.0101 11.9677 11.8084C11.9843 11.7088 11.9925 11.6269 11.9964 11.5718C11.9983 11.5443 11.9993 11.5238 11.9997 11.5114L12 11.4991L12 11.498C12.0011 11.2228 12.2245 11 12.5 11H16ZM18 5.5C18 3.01472 15.9853 1 13.5 1C11.0147 1 9 3.01472 9 5.5C9 7.98528 11.0147 10 13.5 10C15.9853 10 18 7.98528 18 5.5ZM13.8536 7.85355C13.6583 8.04882 13.3417 8.04882 13.1464 7.85355C12.9512 7.65829 12.9512 7.34171 13.1464 7.14645L14.2929 6H11.5C11.2239 6 11 5.77614 11 5.5C11 5.22386 11.2239 5 11.5 5L14.2929 5L13.1464 3.85355C12.9512 3.65829 12.9512 3.34171 13.1464 3.14645C13.3417 2.95118 13.6583 2.95118 13.8536 3.14645L15.8536 5.14645C15.9015 5.19439 15.9377 5.24964 15.9621 5.30861C15.9861 5.36669 15.9996 5.4303 16 5.497L16 5.5L16 5.503C15.9996 5.5697 15.9861 5.63331 15.9621 5.69139C15.938 5.74949 15.9026 5.80398 15.8557 5.85143L15.8532 5.85395L13.8536 7.85355Z" fill="#212121"/>
</svg>

<svg viewBox="0 0 20 20" fill="none" xmlns="http://www.w3.org/2000/svg" height="1em" width="1em">
  <path d="M16 11v-.6a5.507 5.507 0 0 0 1-.657V15a3 3 0 0 1-3 3H6a3 3 0 0 1-3-3V7a3 3 0 0 1 3-3h2.207a5.48 5.48 0 0 0-.185 1H6a2 2 0 0 0-2 2v4h3.5a.5.5 0 0 1 .5.5v.011l.004.06a2.572 2.572 0 0 0 .256.955c.126.254.308.492.572.667.26.174.63.307 1.168.307.537 0 .907-.133 1.168-.307.264-.175.446-.413.572-.667a2.57 2.57 0 0 0 .26-1.015v-.013a.5.5 0 0 1 .5-.498H16Zm2-5.5a4.5 4.5 0 1 0-9 0 4.5 4.5 0 0 0 9 0Zm-4.146 2.354a.5.5 0 0 1-.708-.708L14.293 6H11.5a.5.5 0 0 1 0-1h2.793l-1.147-1.146a.5.5 0 0 1 .708-.708l2 2a.5.5 0 0 1 .146.351v.006a.5.5 0 0 1-.144.348l-.003.003-2 2Z" fill="#212121"/>
</svg>
